X:97
T:Bantry Bay
T:Little Stack of Wheat, The
T:Union Hornpipe, The
R:hornpipe
H:Also played in G, #13
Z:id:hn-hornpipe-97
M:C|
K:A
AB|:cABA FAEF|A2AG AcBA|FABc dcBA|FBBA B2Bc|
dfdB cecA|BcBA FAEA|cABA FAEF|1 A2AG A2AB:|2 A2AG ABcd||
|:e2fe ecAB|c2f2 f3g|agfe cAce|fagb a2fg|
abag fgfe|cfec BcAB|cABA FAEF|1 A2AG ABcd:|2 A2AG A2||

